X: 320
T:Tripping Upstairs
% Nottingham Music Database
S:Trad, arr Phil Rowe
M:6/8
K:D
A|:"D"FAA "G"GBB|"D"FAd fed|"A7"cBc ABc|"D"dfe "G"dcB|
"D"FAA "G"GBB|"D"FAd fed|"A7"cBc ABc|"D"dfe d3::
"Bm"dBB fBB|dBd fed|"A"cAA eAA|cBc edc|
"Bm"dBB fBB|dBd fed|"A7"cBc ABc|"D"dfe d3:|


